X:1
T:Nocturne in C minor (posth.)
T:NOCTURNEIN C MINOR
T:Frédéric Chopin
T:Brown Index 108 (posth.)
T:Public Domain
C:Frederic Chopin
Z:Public Domain
L:1/8
Q:1/4=66
M:4/4
K:Eb
V:1 treble nm="Flute"
V:1
"^Andante sostenuto"!p! (G2 | c>de>f g2 g2 | ^f>g{gb}a>g c4) | (d>G"_cresc."{GB}A>G G2 c2 | %4
!<(! (12:8:12c/d/c/=B/c/d/e/=e/f/^f/a/g/!<)!!>(! d4)!>)! |!p! (c>de>f g2 g2 | ^f>g{gb}a>g c4) | %7
 (d>G{GB}A>G G2 c2 |"_dim." (5:4:5d/e/d/c/d/ e>d c2) z (G |!pp! c>de>f g2 g2 | ^f>g{gb}a>g c4) | %11
 (d>G"_cresc."{GB}A>G G2 c2 |!<(! (12:8:12c/d/c/=B/c/d/e/=e/f/^f/a/g/!<)!!>(! d4)!>)! | %13
!p! (c>de>f g2 g2 | ^f>g!<(!{gb}a>g c'4-!<)! | c'b/a/ g/f/e/d/"_dim." e>d c2 | %16
 GA/G/ ^F/G/e/d/ c2) z (c' |!mf! _d'>c' (3ba3/2g/ a>g f2- |!p! fe/_d/ c/d/A/B/ c4) | %19
!f! (3(c'_d'c' (3ba3/2g/ a>g f2- |!p! fe/_d/ c/d/A/B/ c4) |"^animato" (=B>cf>g a2 f2 | %22
"_cresc." (3=e/f/e/ ^d/4e/4g/4b/4 _d'>c' c'2)!f! (f'2- | f'!>(!_d'bf a>g f2)!>)! | %24
 z/ (c/_d/c/ =B/c/a/g/ f4) |!p! (9:8:9(=B/c/^c/d/e/=e/f/^f/g/ a2 =f2) | %26
 z/4 (=e/4f/4e/4 ^d/4!<(!e/4g/4b/4 _d'>c' c'2)!<)!!f!{/f} (!>!f'2- | %27
 (11:6:11f'/_d'/b/g/f/_d/B/G/f/_d/B/ F/>G/!>(! A>G F2)!>)! | %28
!<(! (14:8:14z/ (F/=E/F/A/G/_d/c/f/=e/a/g/_d'/!<)!c'/!>(! f4)!>)! | %29
!mf! (5:4:5(_e/f/e/=d/e/{eg} f>e eag>f | (3fe_d (3Pdc3/2B/ f2 e2) | %31
 (5:4:5(e/f/e/=d/e/{eg} f>e (5:4:5e/c'/g/b/a/ (3ecA | %32
!<(! (9:8:9G/B/_d/f/e/a/g/c'3/4b/4!<)!!>(! a4)!>)! |!p! (a>g (3fe3/2d/ e>d c2- | %34
!mf! cB/A/ G/A/E/F/ G4) |!p! (3(gag (3fe3/2d/ e>d c2- |!mf! cB/A/ G/A/"^rit."E/F/ G4) | %37
"^a tempo" (^F>Gc>d e2 c2 |"_cresc." (3=B/c/B/ ^A/4B/4d/4f/4 _a>g g2)!f! (c'2- | %39
!>(! c'afc e>d c2)!>)! | z/ (G/A/G/ ^F/G/e/d/ c4) |!p! (G/A/=A/B/=B/c/^c/d/ e2 =c2) | %42
"_cresc." z/4 (=B/4c/4B/4 ^A/4B/4d/4f/4 _a>g g2)!f!{/c} (!>!c'2- | %43
!>(! (3c'/a/f/d/4c'/4a/4f/4d/4c/4A/4F/4 C/>D/ E>D C2)!>)! | %44
"_dim. e rall." (12:8:12(z/ G/^F/G/A/G/c/=B/e/d/a/g/ c4) |] %45

